X: 1
T: First Month Of Summer, The
M: 4/4
L: 1/8
R: reel
K: Amaj
AF~F2 E2CE|A,2CE dBcB|AF~F2 EA,~A,2|CEAB c2cB|
AF~F2 FECE|A,ECE dBcB|AF~F2 EA,~A,2|CEAB c2Bc||
Ac~c2 ecfc|ecAc defa|ec~c2 acec|dBBA Bcdf|
ec~c2 ac~c2|ec~c2 defb|(3aba ga faec|dBBA BdcB||
